img/icon-airplane-white.svg

<svg width="16" height="16" viewBox="0 0 16 16" fill="none" xmlns="http://www.w3.org/2000/svg">
<path d="M4.79998 1.59998L6.25415 6.93331H2.88019L1.59998 4.79998H1.06665V7.46664V9.06664V11.2H1.59998L2.88019 9.06664H6.25415L4.79998 14.4H5.86665L9.74582 9.06664H13.8666C14.456 9.06664 14.9333 8.58931 14.9333 7.99998C14.9333 7.41064 14.456 6.93331 13.8666 6.93331H9.74582L5.86665 1.59998H4.79998Z" fill="white"/>
</svg>

<svg width="16" height="16" fill="none" xmlns="http://www.w3.org/2000/svg"><path d="m4.8 1.6 1.454 5.333H2.88L1.6 4.8h-.533V11.2H1.6l1.28-2.133h3.374L4.8 14.4h1.067l3.879-5.333h4.12a1.066 1.066 0 1 0 0-2.134h-4.12L5.866 1.6H4.8Z" fill="#fff"/></svg>
